; generated by PrusaSlicer 2.5.0+MacOS-arm64 on 2023-02-17 at 01:56:12 UTC


;
;

;
;
; 

; external perimeters extrusion width = 0.45mm
; perimeters extrusion width = 0.45mm
; infill extrusion width = 0.45mm
; solid infill extrusion width = 0.45mm
; top infill extrusion width = 0.40mm
; support material extrusion width = 0.40mm
; first layer extrusion width = 0.36mm

M107 ; disable fan
M190 S60 ; set bed temperature and wait for it to be reached
M104 S225 ; set temperature
;TYPE:Custom
start_print EXTRUDER_TEMP=225 BED_TEMP=60
M109 S225 ; set temperature and wait for it to be reached
G21 ; set units to millimeters
G90 ; use absolute coordinates
M82 ; use absolute distances for extrusion
G92 E0 ; reset extrusion distance
; Filament gcode
M107 ; disable fan
;LAYER_CHANGE
;Z:0.3
;HEIGHT:0.3
TIMELAPSE_TAKE_FRAME
G1 Z.3 F18000 ; move to next layer (0)
G10 ; retract
G92 E0 ; reset extrusion distance
G1 Z.5 ; lift Z
G1 X89.045 Y71.938 ; move to first skirt point
G1 Z.3 ; restore layer Z
G11 ; unretract
G92 E0 ; reset extrusion distance
;TYPE:Skirt/Brim
;WIDTH:0.36
G1 F3000
G1 X89.696 Y71.165 E.03725 ; skirt
G1 X90.297 Y70.595 E.06781 ; skirt
G1 X91.268 Y69.875 E.1124 ; skirt
G1 X92.229 Y69.351 E.15272 ; skirt
G1 X93.167 Y68.977 E.18997 ; skirt
G1 X93.966 Y68.757 E.22053 ; skirt
G1 X95.162 Y68.58 E.26512 ; skirt
G1 X149.391 Y68.558 E2.26459 ; skirt
G1 X151.034 Y68.757 E2.32562 ; skirt
G1 X152.607 Y69.274 E2.38666 ; skirt
G1 X154.049 Y70.087 E2.44769 ; skirt
G1 X155.035 Y70.896 E2.49472 ; skirt
G1 X156.113 Y72.151 E2.55575 ; skirt
G1 X156.926 Y73.593 E2.61678 ; skirt
G1 X157.443 Y75.166 E2.67782 ; skirt
G1 X157.62 Y76.362 E2.72242 ; skirt
G1 X157.647 Y158 E5.7325 ; skirt
G1 X157.583 Y159.017 E5.77008 ; skirt
G1 X157.334 Y160.268 E5.8171 ; skirt
G1 X156.926 Y161.407 E5.8617 ; skirt
G1 X156.555 Y162.148 E5.89225 ; skirt
G1 X155.847 Y163.208 E5.93927 ; skirt
G1 X155.304 Y163.835 E5.96983 ; skirt
G1 X154.703 Y164.405 E6.00038 ; skirt
G1 X153.732 Y165.125 E6.04497 ; skirt
G1 X153.011 Y165.535 E6.07553 ; skirt
G1 X151.833 Y166.023 E6.12255 ; skirt
G1 X150.66 Y166.317 E6.16714 ; skirt
G1 X149.838 Y166.42 E6.1977 ; skirt
G1 X95.8 Y166.447 E8.19014 ; skirt
G1 X94.783 Y166.383 E8.22772 ; skirt
G1 X93.532 Y166.134 E8.27474 ; skirt
G1 X92.746 Y165.872 E8.3053 ; skirt
G1 X91.652 Y165.355 E8.34989 ; skirt
G1 X90.592 Y164.647 E8.39691 ; skirt
G1 X89.965 Y164.104 E8.42747 ; skirt
G1 X89.153 Y163.208 E8.47206 ; skirt
G1 X88.538 Y162.304 E8.51238 ; skirt
G1 X88.074 Y161.407 E8.54963 ; skirt
G1 X87.666 Y160.268 E8.59422 ; skirt
G1 X87.444 Y159.197 E8.63454 ; skirt
G1 X87.358 Y158.191 E8.67179 ; skirt
G1 X87.353 Y77 E11.6654 ; skirt
G1 X87.417 Y75.983 E11.70298 ; skirt
G1 X87.666 Y74.732 E11.75 ; skirt
G1 X87.928 Y73.946 E11.78056 ; skirt
G1 X88.445 Y72.852 E11.82515 ; skirt
G1 X89.012 Y71.988 E11.86326 ; skirt
G1 X89.254 Y72.16 F18000 ; move to first skirt point
G1 F3000
G1 X89.391 Y71.968 E11.87194 ; skirt
G1 X90.164 Y71.115 E11.9144 ; skirt
G1 X90.768 Y70.591 E11.94389 ; skirt
G1 X91.804 Y69.898 E11.98984 ; skirt
G1 X93.267 Y69.255 E12.04874 ; skirt
G1 X94.383 Y68.975 E12.09119 ; skirt
G1 X95.177 Y68.875 E12.12068 ; skirt
G1 X149.376 Y68.853 E14.11908 ; skirt
G1 X150.962 Y69.044 E14.17798 ; skirt
G1 X152.155 Y69.406 E14.22393 ; skirt
G1 X153.58 Y70.128 E14.28283 ; skirt
G1 X154.836 Y71.115 E14.34173 ; skirt
G1 X155.876 Y72.327 E14.40063 ; skirt
G1 X156.659 Y73.72 E14.45953 ; skirt
G1 X157.156 Y75.238 E14.51842 ; skirt
G1 X157.325 Y76.377 E14.56088 ; skirt
G1 X157.351 Y158 E17.57043 ; skirt
G1 X157.29 Y158.974 E17.60641 ; skirt
G1 X157.047 Y160.196 E17.65236 ; skirt
G1 X156.659 Y161.28 E17.69482 ; skirt
G1 X156.072 Y162.38 E17.74077 ; skirt
G1 X155.609 Y163.032 E17.77026 ; skirt
G1 X154.836 Y163.885 E17.81271 ; skirt
G1 X154.232 Y164.409 E17.8422 ; skirt
G1 X153.196 Y165.102 E17.88815 ; skirt
G1 X152.48 Y165.459 E17.91764 ; skirt
G1 X151.396 Y165.847 E17.96009 ; skirt
G1 X150.354 Y166.064 E17.99935 ; skirt
G1 X149.376 Y166.147 E18.03552 ; skirt
G1 X95.8 Y166.151 E20.01095 ; skirt
G1 X94.826 Y166.09 E20.04693 ; skirt
G1 X93.604 Y165.847 E20.09288 ; skirt
G1 X92.52 Y165.459 E20.13534 ; skirt
G1 X91.42 Y164.872 E20.18129 ; skirt
G1 X90.768 Y164.409 E20.21077 ; skirt
G1 X89.915 Y163.636 E20.25323 ; skirt
G1 X89.391 Y163.032 E20.28272 ; skirt
G1 X88.698 Y161.996 E20.32867 ; skirt
G1 X88.206 Y160.955 E20.37112 ; skirt
G1 X87.953 Y160.196 E20.40061 ; skirt
G1 X87.737 Y159.154 E20.43986 ; skirt
G1 X87.653 Y158.176 E20.47604 ; skirt
G1 X87.649 Y77 E23.46911 ; skirt
G1 X87.71 Y76.026 E23.50509 ; skirt
G1 X87.953 Y74.804 E23.55104 ; skirt
G1 X88.341 Y73.72 E23.5935 ; skirt
G1 X88.928 Y72.62 E23.63945 ; skirt
G1 X89.22 Y72.209 E23.65804 ; skirt
G1 X89.46 Y72.38 F18000 ; move to first skirt point
G1 F3000
G1 X89.628 Y72.144 E23.66871 ; skirt
G1 X90.363 Y71.334 E23.70903 ; skirt
G1 X90.944 Y70.828 E23.73745 ; skirt
G1 X91.956 Y70.152 E23.78233 ; skirt
G1 X93.366 Y69.534 E23.8391 ; skirt
G1 X94.427 Y69.268 E23.87941 ; skirt
G1 X95.191 Y69.171 E23.90783 ; skirt
G1 X149.362 Y69.149 E25.90516 ; skirt
G1 X150.89 Y69.331 E25.96192 ; skirt
G1 X152.055 Y69.684 E26.00681 ; skirt
G1 X153.428 Y70.382 E26.06357 ; skirt
G1 X154.637 Y71.334 E26.12033 ; skirt
G1 X155.638 Y72.504 E26.1771 ; skirt
G1 X156.392 Y73.846 E26.23386 ; skirt
G1 X156.869 Y75.31 E26.29062 ; skirt
G1 X157.03 Y76.391 E26.33094 ; skirt
G1 X157.055 Y158 E29.33996 ; skirt
G1 X156.998 Y158.931 E29.37433 ; skirt
G1 X156.76 Y160.124 E29.41922 ; skirt
G1 X156.392 Y161.154 E29.45954 ; skirt
G1 X155.818 Y162.228 E29.50442 ; skirt
G1 X155.372 Y162.856 E29.53283 ; skirt
G1 X154.638 Y163.666 E29.57315 ; skirt
G1 X154.056 Y164.172 E29.60157 ; skirt
G1 X153.044 Y164.848 E29.64645 ; skirt
G1 X152.354 Y165.192 E29.67487 ; skirt
G1 X151.324 Y165.56 E29.71519 ; skirt
G1 X150.311 Y165.771 E29.75337 ; skirt
G1 X149.362 Y165.851 E29.78848 ; skirt
G1 X95.8 Y165.855 E31.76337 ; skirt
G1 X94.87 Y165.798 E31.79774 ; skirt
G1 X93.676 Y165.56 E31.84263 ; skirt
G1 X92.646 Y165.192 E31.88295 ; skirt
G1 X91.572 Y164.618 E31.92783 ; skirt
G1 X90.944 Y164.172 E31.95625 ; skirt
G1 X90.134 Y163.437 E31.99657 ; skirt
G1 X89.628 Y162.856 E32.02498 ; skirt
G1 X88.952 Y161.844 E32.06987 ; skirt
G1 X88.484 Y160.855 E32.11018 ; skirt
G1 X88.24 Y160.124 E32.1386 ; skirt
G1 X88.029 Y159.111 E32.17678 ; skirt
G1 X87.949 Y158.162 E32.21189 ; skirt
G1 X87.945 Y77 E35.20443 ; skirt
G1 X88.002 Y76.07 E35.2388 ; skirt
G1 X88.24 Y74.876 E35.28369 ; skirt
G1 X88.608 Y73.846 E35.32401 ; skirt
G1 X89.182 Y72.772 E35.36889 ; skirt
G1 X89.426 Y72.429 E35.38442 ; skirt
G10 ; retract
G92 E0 ; reset extrusion distance
G1 Z.5 F18000 ; lift Z
G1 X93.127 Y75.214 ; move to first perimeter point
G1 Z.3 ; restore layer Z
G11 ; unretract
G92 E0 ; reset extrusion distance
;TYPE:Perimeter
;WIDTH:0.36
G1 F3000
G1 X93.527 Y74.727 E.02323 ; perimeter
G1 X94.014 Y74.327 E.04647 ; perimeter
G1 X94.57 Y74.03 E.06971 ; perimeter
G1 X95.173 Y73.847 E.09294 ; perimeter
G1 X95.854 Y73.78 E.11818 ; perimeter
G1 X149.146 Y73.78 E2.08312 ; perimeter
G1 X149.827 Y73.847 E2.10836 ; perimeter
G1 X150.43 Y74.03 E2.13159 ; perimeter
G1 X150.986 Y74.327 E2.15482 ; perimeter
G1 X151.473 Y74.727 E2.17806 ; perimeter
G1 X151.873 Y75.214 E2.20129 ; perimeter
G1 X152.17 Y75.77 E2.22453 ; perimeter
G1 X152.353 Y76.373 E2.24776 ; perimeter
G1 X152.42 Y77.054 E2.273 ; perimeter
G1 X152.42 Y95.385 E2.94889 ; perimeter
;WIDTH:0.4044
G1 X152.398 Y95.603 E2.95819 ; perimeter
;WIDTH:0.4488
G1 X152.375 Y95.821 E2.9687 ; perimeter
;WIDTH:0.4932
G1 X152.353 Y96.04 E2.98043 ; perimeter
G1 X152.367 Y96.528 E3.00655 ; perimeter
;WIDTH:0.465915
G1 X152.38 Y97.016 E3.03101 ; perimeter
;WIDTH:0.438631
G1 X152.38 Y156.304 E5.79849 ; perimeter
;WIDTH:0.451867
G1 X152.374 Y156.786 E5.8218 ; perimeter
G1 X152.397 Y157.073 E5.8357 ; perimeter
;WIDTH:0.405933
G1 X152.42 Y157.36 E5.84795 ; perimeter
;WIDTH:0.36
G1 X152.42 Y157.946 E5.86957 ; perimeter
G1 X152.353 Y158.627 E5.89481 ; perimeter
G1 X152.185 Y159.18 E5.91613 ; perimeter
G1 X152.039 Y159.475 E5.92823 ; perimeter
G1 X151.763 Y159.92 E5.94753 ; perimeter
G1 X151.429 Y160.309 E5.96646 ; perimeter
G1 X150.937 Y160.699 E5.98961 ; perimeter
G1 X150.38 Y160.985 E6.01268 ; perimeter
G1 X149.754 Y161.16 E6.03667 ; perimeter
G1 X149.128 Y161.22 E6.05985 ; perimeter
;WIDTH:0.4044
G1 X148.912 Y161.198 E6.06905 ; perimeter
;WIDTH:0.4488
G1 X148.696 Y161.175 E6.07945 ; perimeter
;WIDTH:0.493201
G1 X148.48 Y161.153 E6.09106 ; perimeter
G1 X147.992 Y161.167 E6.11718 ; perimeter
;WIDTH:0.465917
G1 X147.504 Y161.18 E6.14164 ; perimeter
;WIDTH:0.438633
G1 X97.496 Y161.18 E8.47595 ; perimeter
;WIDTH:0.443269
G1 X97.343 Y161.178 E8.48318 ; perimeter
;WIDTH:0.493202
G1 X96.52 Y161.153 E8.52724 ; perimeter
G1 X96.298 Y161.175 E8.53917 ; perimeter
;WIDTH:0.448801
G1 X96.076 Y161.198 E8.54986 ; perimeter
;WIDTH:0.4044
G1 X95.854 Y161.22 E8.55932 ; perimeter
;WIDTH:0.36
G1 X95.173 Y161.153 E8.58456 ; perimeter
G1 X94.62 Y160.985 E8.60587 ; perimeter
G1 X94.325 Y160.839 E8.61798 ; perimeter
G1 X93.88 Y160.563 E8.63728 ; perimeter
G1 X93.491 Y160.229 E8.65621 ; perimeter
G1 X93.101 Y159.737 E8.67936 ; perimeter
G1 X92.815 Y159.18 E8.70242 ; perimeter
G1 X92.64 Y158.554 E8.72642 ; perimeter
G1 X92.58 Y157.928 E8.7496 ; perimeter
;WIDTH:0.404401
G1 X92.602 Y157.712 E8.7588 ; perimeter
;WIDTH:0.448802
G1 X92.625 Y157.496 E8.7692 ; perimeter
;WIDTH:0.493204
G1 X92.647 Y157.28 E8.78081 ; perimeter
G1 X92.633 Y156.792 E8.80693 ; perimeter
;WIDTH:0.465919
G1 X92.62 Y156.304 E8.83139 ; perimeter
;WIDTH:0.438634
G1 X92.62 Y97.016 E11.59888 ; perimeter
;WIDTH:0.451921
G1 X92.626 Y96.533 E11.62224 ; perimeter
G1 X92.603 Y96.247 E11.63612 ; perimeter
;WIDTH:0.40596
G1 X92.58 Y95.96 E11.64836 ; perimeter
;WIDTH:0.36
G1 X92.58 Y77.054 E12.34546 ; perimeter
G1 X92.647 Y76.373 E12.3707 ; perimeter
G1 X92.83 Y75.77 E12.39393 ; perimeter
G1 X93.099 Y75.267 E12.41495 ; perimeter
G1 X92.88 Y75.049 F18000 ; move to first perimeter point
G1 F3000
G1 X93.317 Y74.517 E12.44033 ; perimeter
G1 X93.849 Y74.08 E12.46571 ; perimeter
G1 X94.456 Y73.756 E12.4911 ; perimeter
G1 X95.115 Y73.556 E12.51647 ; perimeter
G1 X95.84 Y73.485 E12.54332 ; perimeter
G1 X149.16 Y73.485 E14.50933 ; perimeter
G1 X149.885 Y73.556 E14.53619 ; perimeter
G1 X150.544 Y73.756 E14.56156 ; perimeter
G1 X151.151 Y74.08 E14.58694 ; perimeter
G1 X151.683 Y74.517 E14.61233 ; perimeter
G1 X152.12 Y75.049 E14.63771 ; perimeter
G1 X152.444 Y75.656 E14.66309 ; perimeter
G1 X152.644 Y76.315 E14.68847 ; perimeter
G1 X152.715 Y77.04 E14.71532 ; perimeter
G1 X152.715 Y157.961 E17.69897 ; perimeter
G1 X152.644 Y158.685 E17.72582 ; perimeter
G1 X152.444 Y159.344 E17.7512 ; perimeter
G1 X152.12 Y159.951 E17.77658 ; perimeter
G1 X151.683 Y160.483 E17.80197 ; perimeter
G1 X151.151 Y160.92 E17.82735 ; perimeter
G1 X150.544 Y161.244 E17.85273 ; perimeter
G1 X149.885 Y161.444 E17.87811 ; perimeter
G1 X149.16 Y161.515 E17.90496 ; perimeter
G1 X95.84 Y161.515 E19.87097 ; perimeter
G1 X95.115 Y161.444 E19.89782 ; perimeter
G1 X94.456 Y161.244 E19.92319 ; perimeter
G1 X93.849 Y160.92 E19.94858 ; perimeter
G1 X93.317 Y160.483 E19.97396 ; perimeter
G1 X92.88 Y159.951 E19.99934 ; perimeter
G1 X92.556 Y159.344 E20.02472 ; perimeter
G1 X92.356 Y158.685 E20.0501 ; perimeter
G1 X92.285 Y157.96 E20.07695 ; perimeter
G1 X92.285 Y77.04 E23.06061 ; perimeter
G1 X92.356 Y76.315 E23.08746 ; perimeter
G1 X92.556 Y75.656 E23.11283 ; perimeter
G1 X92.852 Y75.102 E23.136 ; perimeter
G1 X92.633 Y74.884 F18000 ; move to first perimeter point
G1 F3000
G1 X93.107 Y74.307 E23.16353 ; perimeter
G1 X93.684 Y73.833 E23.19106 ; perimeter
G1 X94.342 Y73.481 E23.21859 ; perimeter
G1 X95.057 Y73.265 E23.24612 ; perimeter
G1 X95.825 Y73.189 E23.27458 ; perimeter
G1 X149.175 Y73.189 E25.24166 ; perimeter
G1 X149.943 Y73.265 E25.27012 ; perimeter
G1 X150.658 Y73.481 E25.29764 ; perimeter
G1 X151.316 Y73.833 E25.32517 ; perimeter
G1 X151.893 Y74.307 E25.3527 ; perimeter
G1 X152.367 Y74.884 E25.38023 ; perimeter
G1 X152.719 Y75.542 E25.40776 ; perimeter
G1 X152.935 Y76.257 E25.43528 ; perimeter
G1 X153.011 Y77.025 E25.46374 ; perimeter
G1 X153.011 Y157.975 E28.44847 ; perimeter
G1 X152.935 Y158.743 E28.47692 ; perimeter
G1 X152.719 Y159.458 E28.50445 ; perimeter
G1 X152.367 Y160.116 E28.53198 ; perimeter
G1 X151.893 Y160.693 E28.55951 ; perimeter
G1 X151.316 Y161.167 E28.58704 ; perimeter
G1 X150.658 Y161.519 E28.61457 ; perimeter
G1 X149.943 Y161.735 E28.6421 ; perimeter
G1 X149.175 Y161.811 E28.67055 ; perimeter
G1 X95.825 Y161.811 E30.63763 ; perimeter
G1 X95.057 Y161.735 E30.66609 ; perimeter
G1 X94.342 Y161.519 E30.69362 ; perimeter
G1 X93.684 Y161.167 E30.72115 ; perimeter
G1 X93.107 Y160.693 E30.74868 ; perimeter
G1 X92.633 Y160.116 E30.7762 ; perimeter
G1 X92.281 Y159.458 E30.80373 ; perimeter
G1 X92.065 Y158.743 E30.83126 ; perimeter
G1 X91.989 Y157.975 E30.85972 ; perimeter
G1 X91.989 Y77.025 E33.84444 ; perimeter
G1 X92.065 Y76.257 E33.8729 ; perimeter
G1 X92.281 Y75.542 E33.90043 ; perimeter
G1 X92.605 Y74.937 E33.92575 ; perimeter
G1 X92.386 Y74.719 F18000 ; move to first perimeter point
;TYPE:External perimeter
G1 F3000
G1 X92.897 Y74.097 E33.95542 ; perimeter
G1 X93.519 Y73.586 E33.9851 ; perimeter
G1 X94.229 Y73.207 E34.01477 ; perimeter
G1 X94.999 Y72.973 E34.04445 ; perimeter
G1 X95.811 Y72.893 E34.07452 ; perimeter
G1 X149.189 Y72.893 E36.04266 ; perimeter
G1 X150.001 Y72.973 E36.07274 ; perimeter
G1 X150.771 Y73.207 E36.10241 ; perimeter
G1 X151.481 Y73.586 E36.13208 ; perimeter
G1 X152.103 Y74.097 E36.16176 ; perimeter
G1 X152.614 Y74.719 E36.19143 ; perimeter
G1 X152.993 Y75.429 E36.22111 ; perimeter
G1 X153.227 Y76.199 E36.25079 ; perimeter
G1 X153.307 Y77.011 E36.28085 ; perimeter
G1 X153.307 Y157.989 E39.26665 ; perimeter
G1 X153.227 Y158.801 E39.29671 ; perimeter
G1 X152.993 Y159.571 E39.32639 ; perimeter
G1 X152.614 Y160.281 E39.35606 ; perimeter
G1 X152.103 Y160.903 E39.38574 ; perimeter
G1 X151.481 Y161.414 E39.41542 ; perimeter
G1 X150.771 Y161.793 E39.44509 ; perimeter
G1 X150.001 Y162.027 E39.47477 ; perimeter
G1 X149.189 Y162.107 E39.50484 ; perimeter
G1 X95.811 Y162.107 E41.47298 ; perimeter
G1 X94.999 Y162.027 E41.50305 ; perimeter
G1 X94.229 Y161.793 E41.53272 ; perimeter
G1 X93.519 Y161.414 E41.5624 ; perimeter
G1 X92.897 Y160.903 E41.59208 ; perimeter
G1 X92.386 Y160.281 E41.62175 ; perimeter
G1 X92.007 Y159.571 E41.65143 ; perimeter
G1 X91.773 Y158.801 E41.68111 ; perimeter
G1 X91.693 Y157.989 E41.71117 ; perimeter
G1 X91.693 Y77.011 E44.69697 ; perimeter
G1 X91.773 Y76.199 E44.72703 ; perimeter
G1 X92.007 Y75.429 E44.75671 ; perimeter
G1 X92.358 Y74.772 E44.78417 ; perimeter
G1 X92.785 Y74.745 F18000 ; move inwards before travel
G10 ; retract
G92 E0 ; reset extrusion distance
G1 Z.5 ; lift Z
G1 X94.167 Y94.063 ; move to first perimeter point
G1 Z.3 ; restore layer Z
G11 ; unretract
G92 E0 ; reset extrusion distance
;TYPE:Perimeter
G1 F3000
G1 X94.492 Y93.719 E.01745 ; perimeter
G1 X94.912 Y93.381 E.03733 ; perimeter
G1 X95.37 Y93.095 E.05721 ; perimeter
G1 X95.858 Y92.867 E.07709 ; perimeter
G1 X96.371 Y92.699 E.09698 ; perimeter
G1 X97.496 Y92.553 E.13882 ; perimeter
G1 X147.504 Y92.553 E1.98267 ; perimeter
G1 X148.446 Y92.66 E2.01765 ; perimeter
G1 X149.459 Y93.011 E2.05714 ; perimeter
G1 X149.985 Y93.31 E2.07946 ; perimeter
G1 X150.414 Y93.636 E2.09934 ; perimeter
G1 X150.801 Y94.012 E2.11921 ; perimeter
G1 X151.139 Y94.432 E2.13911 ; perimeter
G1 X151.425 Y94.89 E2.15899 ; perimeter
G1 X151.653 Y95.378 E2.17888 ; perimeter
;WIDTH:0.386402
G1 X151.749 Y95.631 E2.18973 ; perimeter
;WIDTH:0.412805
G1 X151.846 Y95.883 E2.20147 ; perimeter
;WIDTH:0.453002
G1 X151.886 Y95.974 E2.2063 ; perimeter
;WIDTH:0.4932
G1 X151.926 Y96.066 E2.21163 ; perimeter
G1 X152.001 Y96.886 E2.2557 ; perimeter
;WIDTH:0.443268
G1 X152.006 Y97.016 E2.26185 ; perimeter
;WIDTH:0.438631
G1 X152.006 Y156.304 E5.02932 ; perimeter
;WIDTH:0.460387
G1 X151.977 Y156.898 E5.0587 ; perimeter
G1 X151.925 Y157.075 E5.06782 ; perimeter
;WIDTH:0.426924
